X: 1
T:Eight O'Clock in the Morning
R:Jig
C:Anonymous
M:6/8
L:1/8
K:A
E|:Ace dcB|Ace f2g|aec aec|{d}cBA B2E|!
Ace dcB|Ace f2g|aec aec|~B3 A2E:|!
|:g||aec aec|~f3 efg|aec aec|{d}cBA B2g|!
aba gfe|~f3 efg|aec aec|~B3 A2:||!
